( Made using CamBam - http://www.cambam.co.uk )
( surfacage_2 1/23/2023 7:53:15 PM )
( T0 : 30.0 )
G21 G90 G64 G40
G0 Z4.0
( T0 : 30.0 )
T0 M6
( Poche1 )
G17
M3 S18000
G0 X15.0 Y1473.0
G0 Z1.0
G1 F100.0 Z-0.5
G1 F1500.0 X125.0
G1 Y1446.0
G1 X15.0
G1 Y1419.0
G1 X125.0
G1 Y1392.0
G1 X15.0
G1 Y1365.0
G1 X125.0
G1 Y1338.0
G1 X15.0
G1 Y1311.0
G1 X125.0
G1 Y1284.0
G1 X15.0
G1 Y1257.0
G1 X125.0
G1 Y1230.0
G1 X15.0
G1 Y1203.0
G1 X125.0
G1 Y1176.0
G1 X15.0
G1 Y1149.0
G1 X125.0
G1 Y1122.0
G1 X15.0
G1 Y1095.0
G1 X125.0
G1 Y1068.0
G1 X15.0
G1 Y1041.0
G1 X125.0
G1 Y1014.0
G1 X15.0
G1 Y987.0
G1 X125.0
G1 Y960.0
G1 X15.0
G1 Y933.0
G1 X125.0
G1 Y906.0
G1 X15.0
G1 Y879.0
G1 X125.0
G1 Y852.0
G1 X15.0
G1 Y825.0
G1 X125.0
G1 Y798.0
G1 X15.0
G1 Y771.0
G1 X125.0
G1 Y744.0
G1 X15.0
G1 Y717.0
G1 X125.0
G1 Y690.0
G1 X15.0
G1 Y663.0
G1 X125.0
G1 Y636.0
G1 X15.0
G1 Y609.0
G1 X125.0
G1 Y582.0
G1 X15.0
G1 Y555.0
G1 X125.0
G1 Y528.0
G1 X15.0
G1 Y501.0
G1 X125.0
G1 Y474.0
G1 X15.0
G1 Y447.0
G1 X125.0
G1 Y420.0
G1 X15.0
G1 Y393.0
G1 X125.0
G1 Y366.0
G1 X15.0
G1 Y339.0
G1 X125.0
G1 Y312.0
G1 X15.0
G1 Y285.0
G1 X125.0
G1 Y258.0
G1 X15.0
G1 Y231.0
G1 X125.0
G1 Y204.0
G1 X15.0
G1 Y177.0
G1 X125.0
G1 Y150.0
G1 X15.0
G1 Y123.0
G1 X125.0
G1 Y96.0
G1 X15.0
G1 Y69.0
G1 X125.0
G1 Y42.0
G1 X15.0
G1 Y15.0
G1 X125.0
G0 Z4.0
M5
M30
